korla/scalable/actions/scalable/fcitx-shuangpin.svg

<svg xmlns="http://www.w3.org/2000/svg" width="16" height="16" version="1.1">
 <defs>
  <style id="current-color-scheme" type="text/css">
   .ColorScheme-Text { color:#5c616c; } .ColorScheme-Highlight { color:#5294e2; }
  </style>
 </defs>
 <path style="fill:currentColor" class="ColorScheme-Text" d="M 2,0 C 0.892,0 0,0.8919999 0,2 v 12 c 0,1.108 0.892,2 2,2 h 12 c 1.108,0 2,-0.892 2,-2 V 2 C 16,0.8919999 15.108,0 14,0 Z m 0,2 h 5.548828 l -0.05078,0.5488281 c 0,0 -0.328138,3.5211059 -1.224609,6.1289059 0.582674,0.8731 1.139004,1.775219 1.83789,3.011719 l -0.86914,0.490235 c -0.538885,-0.953401 -0.984712,-1.688401 -1.4218755,-2.375 -1.394441,3.1253 -3.3652344,4.488281 -3.3652344,4.488281 L 1.8984375,13.460938 c 0,0 1.9703909,-1.313951 3.2636719,-4.65625 C 4.3964564,7.698287 3.526808,6.583253 2.109375,4.8144531 L 2.890625,4.1875 C 4.071895,5.6617 4.8640437,6.679778 5.5585938,7.642578 6.10955,5.736878 6.35674,3.6434 6.427734,3 H 2 Z m 6,0 h 6 v 0.5 c 0,2.1466 -0.832862,4.968103 -1.707031,6.908203 -0.110964,0.2463 -0.241608,0.46596 -0.367188,0.693359 0.62377,1.083402 1.46019,2.113469 2.84375,3.230469 l -0.626953,0.779297 c -1.281085,-1.0343 -2.147062,-2.040853 -2.802734,-3.064453 -1.393199,1.9869 -3.103516,3.037109 -3.103516,3.037109 L 7.71875,13.228516 c 0,0 1.7803,-1.100778 3.068359,-3.142578 C 10.449417,9.437537 10.165672,8.77865 9.900391,8.09375 9.142306,6.13675 8.691778,3.5916 8.589844,3 H 8 Z m 1.607422,1 c 0.139266,0.7654 0.568348,3.033322 1.226562,4.732422 0.173508,0.4479 0.351003,0.86735 0.539063,1.28125 0.0025,-0.006 0.0053,-0.0056 0.0078,-0.01563 C 12.137806,7.318047 12.815205,4.8531 12.923828,3 Z"/>
</svg>

<svg xmlns="http://www.w3.org/2000/svg" width="16" height="16" version="1.1">
 <defs>
  <style id="current-color-scheme" type="text/css">
   .ColorScheme-Text { color:#444444; } .ColorScheme-Highlight { color:#5294e2; }
  </style>
 </defs>
 <path style="fill:currentColor" class="ColorScheme-Text" d="M 2 0 C 0.892 0 0 0.892 0 2 L 0 14 C 0 15.108 0.892 16 2 16 L 14 16 C 15.108 16 16 15.108 16 14 L 16 2 C 16 0.892 15.108 0 14 0 L 2 0 z M 2 2 L 7.5488 2 L 7.498 2.5508 C 7.498 2.5508 7.1704 6.0697 6.2734 8.6797 C 6.8564 9.5497 7.4123 10.449 8.1113 11.689 L 7.2422 12.18 C 6.7032 11.23 6.2583 10.491 5.8203 9.8105 C 4.4263 12.931 2.4551 14.293 2.4551 14.293 L 1.8984 13.461 C 1.8984 13.461 3.8691 12.151 5.1621 8.8105 C 4.3971 7.7005 3.5274 6.5805 2.1094 4.8105 L 2.8906 4.1895 C 4.0716 5.6595 4.8636 6.6806 5.5586 7.6406 C 6.1096 5.7406 6.3567 3.64 6.4277 3 L 2 3 L 2 2 z M 8 2 L 14 2 L 14 2.5 C 14 4.65 13.167 7.4702 12.293 9.4102 C 12.182 9.6602 12.051 9.8696 11.926 10.1 C 12.55 11.19 13.386 12.22 14.77 13.332 L 14.143 14.111 C 12.861 13.077 11.996 12.071 11.34 11.051 C 9.9468 13.035 8.2363 14.084 8.2363 14.084 L 7.7188 13.229 C 7.7188 13.229 9.4991 12.13 10.787 10.09 C 10.449 9.4398 10.166 8.7798 9.9004 8.0898 C 9.1424 6.1398 8.6918 3.59 8.5898 3 L 8 3 L 8 2 z M 9.6074 3 C 9.7474 3.77 10.176 6.0305 10.834 7.7305 C 11.007 8.1805 11.185 8.5998 11.373 9.0098 C 12.13 7.3298 12.815 4.85 12.924 3 L 9.6074 3 z"/>
</svg>
